X:1
T:Mauna Loa, 99.99 D
T:Jarius Maxson Stillman, ca. 1909
T:Mauna Loa, 99.99 D
T:Public Domain
C:Jarius Maxson Stillman, ca. 1909
Z:Public Domain
%%score ( 1 2 ) ( 3 4 )
L:1/8
M:9/8
K:Ab
V:1 treble 
V:2 treble 
V:3 bass 
V:4 bass 
V:1
 [CE][=B,=D][CE] | [Ec]3 [CA]3 [DG][CA][DB] | (A3 E3) [EA][EB][Ec] | [EB]3 [EG]3 (BA)[_DF] | %4
 E6 [CE][=B,=D][CE] | [Ec]3 [CA]3 [CA][CB][CA] | [DF]6 [Fd][Fc][FB] | %7
 [EA]3 [CE]2 [CA] ([DB][Ec])[DB] | [CA]6 [Ac][A=B][Ac] | [Ae]3 [Ac]3 A[GB][Ac] | %10
 [GB]6 [GB][G=A][GB] | [Bd]3 [GB]3 ([GB][FA])[GB] | [Ac]6 [Ac][A=B][Ac] | %13
 [Ae]3 [Ec]3 [CA][DB][Ec] | [Fd]6 [Fd][Fc][FB] | [EA]3 E3 (EA)[GB] | A6 |] %17
V:2
 x3 | x9 | C6 x3 | x6 =D2 x | E6 x3 | x9 | x9 | x9 | x9 | x6 A x2 | x9 | x9 | x9 | x9 | x9 | %15
 x3 E3 c2 x | A6 |] %17
V:3
 [A,,A,][A,,A,][A,,A,] | [A,,A,]3 [A,,E,]3 E,E,E, | [A,,E,]6 [C,A,][B,,G,][A,,A,] | %3
 [E,G,]3 [E,B,]3 [B,,B,]2 [B,,A,] | [E,G,]6 [A,,A,][A,,A,][A,,A,] | %5
 [A,,A,]3 [A,,A,]3 [A,,A,][A,,A,][A,,A,] | [D,A,]6 [D,A,][D,A,][D,D] | %7
 [E,C]3 [E,A,]2 [E,A,] [E,G,]2 [E,G,] | [A,,A,]6 [A,E][A,=D][A,E] | [A,C]3 [A,E]3 [CE][B,E][A,E] | %10
 [E,E]6 [E,E][E,E][E,E] | [E,B,]3 [E,E]3 [E,E]2 [E,E] | [A,E]6 [A,E][A,=D][A,E] | %13
 [A,C]3 A,3 A,A,A, | [D,A,]6 [D,A,][D,A,][D,D] | [E,C]3 [E,C]3 [E,E]2 [E,D] | [A,,C]6 |] %17
V:4
 x3 | x6 E,E,E, | x9 | x9 | x9 | x9 | x9 | x9 | x9 | x9 | x9 | x9 | x9 | x3 A,3 A,A,A, | x9 | x9 | %16
 x6 |] %17

